X:1
T:The Flight of the Bumble Bee
T:Nikolay Andrevevich Rimsky-Korsakov
L:1/16
M:2/4
I:linebreak 
K:C
V:1 treble nm="Flute" snm="Fl."
V:1
 (e'_e'd'^c' d'c'=c'b) | (c'b_ba _ag_gf) | (e_ed^c dc=cB) | (cB_BA _AG_GF) | E2d^c dc=cB | %5
 (cB_BA _AG_GF) || e_ed_d cf_fe | e_ed_d cd=de | e_ed_d cf_fe | e_ed_d cd=de | e_ed^c dc=cB | %11
 c^cd_e =efe_e | e_ed_d =d^c=cB | c^cd_e =e^fg^g | a^g=g^f =f_ba^g | a^g=g^f =f^fg^g | %16
 a^g=g^f =f_ba^g | a^g=g^f =f^fg^g | a^g=g^f gf=fe | f^fg^g a_bag | a^g=g^f gf=fe | %21
 f^fg^g a_bag | A^GAG AGAG | _B^GBG BGBG | A^GAG AGAG | _B^GBG BGBG | A_BA^G ABAG | A_BA^G ABAG | %28
 A_B=Bc _dcB_B | A_B=Bc _dcB_B | A2d^c dcdc | _e^cec ecec | d^cdc dcdc | _e^cec ecec | %34
 d_ed^c dedc | d_ed^c dedc | d_e=ef ^f=fe_e | d_e=ef ^f=fe_e | d^c=cB _B_ed^c | d^c=cB _B=Bc^c | %40
 d_dc_c =c_c_BA | _B=Bc_d cd=d_e | e_ed_d =d_dc_c | c_c_BA _AG_GF | EFE^D EFED | EFE^D EFED | %46
 EFE^D EFED | EFE^D EFED | E4 e2c2 | A2F2 A2c2 | e4 e'2c'2 | a2f2 a2c'2 | e'4 e'e'c'c' | %53
 aaff aac'c' | e_ed^c =cB_BA | _AG_GF EFG=G | ^GA^AB c^cd^d | efe^d efed | e_ed_d cf_fe | %59
 e_ed_d cd=de | e_ed_d cf_fe | e_ed_d cd=de | e_ed^c dc=cB | c^cd_e =efe_e | e_ed_d =d^c=cB | %65
 c^cd_e =e^fg^g | a^g=g^f =f_ba^g | a^g=g^f =f^fg^g | a^g=g^f =f_ba^g | a^g=g^f =f^fg^g | %70
 a_ag_g =g_gfe | f^fg^g a_bag | a_ag_g fg=ga | abc'd' e'f'e'_e' | e'_e'd'_d' c'f'_f'e' | %75
 e'_e'd'_d' c'd'=d'e' | e'_e'd'_d' c'f'_f'e' | e'_e'd'_d' c'd'=d'e' | .e'2^GA _B=Bc^c | %79
 d^c=cB cB_BA | ^GA_B=B c^cd_e | efe_e =efe_e | .e2^ga _b=bc'^c' | d'^c'=c'b c'b_ba | %84
 ^ga_b=b c'^c'd'_e' | e'f'e'_e' =e'f'^f'g' | a'_a'g'_g' =g'_g'f'_f' | f'_f'_e'd' _d'c'b_b | %88
 a2 z2 z4 | z8 | a_ba^g abag | a_ba^g a2 z2 | e'f'e'^d' e'f'e'd' | e'f'e'^d' e'2 z2 | .a'2 z2 z4 | %95
 z8 | ef^fg ^ga_b=b | c'^c'd'_e' =e'f'^f'g' | a'2 z2 z4 | a2 z2 z4 | A2 z2 z4 |] %101
